X: 39370
T: Tana
R: reel
M: 4/4
K: Dmajor
|FB (3BBB Ad d2|DF (3FFF EA A2|F2 EF DEFA|G2 FGE4|
FB (3BBB Ad d2|DF (3FFF EA AG|F2 EF DEFA|G2 FGE3f|
fedc d2 Ad|(3.B.c.d AF E3 F|D2AF E2 DE|FBBA Bcde|
fedc edcA|(3.B.c.d AF E3 F|DAAF E2 DE|FBBA B4||

